resources/images/toolbar_fuzzy_skin_paint.svg

<svg width="40" height="40" viewBox="0 0 40 40" fill="none" xmlns="http://www.w3.org/2000/svg">
<path d="M34.8701 23.3799C35.2701 22.7399 35.0101 22.0699 34.5501 21.7299C34.0801 21.3999 33.3601 21.3699 32.8901 21.9499L27.6201 28.4399C27.5201 28.4399 27.4301 28.4099 27.3301 28.4099C25.5401 28.4099 24.0801 29.8699 24.0801 31.6599C24.0801 33.1199 23.2401 33.6299 22.8801 33.8499C22.7401 33.9399 22.4101 34.1399 22.5201 34.5199C22.6301 34.9099 22.9701 34.9099 23.4801 34.9099H27.8801V34.8599C29.4101 34.5999 30.5801 33.2599 30.5801 31.6499C30.5801 31.0599 30.4101 30.5099 30.1301 30.0299L30.5001 30.2599L34.8601 23.3499L34.8701 23.3799ZM27.3301 33.9299H24.3401C24.7301 33.4499 25.0801 32.7399 25.0801 31.6799C25.0801 30.4399 26.0901 29.4299 27.3301 29.4299C28.5701 29.4299 29.5801 30.4399 29.5801 31.6799C29.5801 32.9199 28.5701 33.9299 27.3301 33.9299ZM28.6801 28.7199L33.6601 22.5899C33.7701 22.4499 33.8801 22.4899 33.9601 22.5499C34.0401 22.6099 34.1101 22.6999 34.0201 22.8499L29.7801 29.5599C29.4801 29.2099 29.1101 28.9199 28.6801 28.7199Z" fill="#FF7C3F"/>
<path d="M33.5 35H32.5C32.22 35 32 34.78 32 34.5C32 34.22 32.22 34 32.5 34H33.5C33.78 34 34 33.78 34 33.5V28.5C34 28.22 34.22 28 34.5 28C34.78 28 35 28.22 35 28.5V33.5C35 34.33 34.33 35 33.5 35ZM35 18.5V5.5C35 4.67 34.33 4 33.5 4H5.5C4.67 4 4 4.67 4 5.5V7.5C4 7.78 4.22 8 4.5 8C4.78 8 5 7.78 5 7.5V5.5C5 5.22 5.22 5 5.5 5H33.5C33.78 5 34 5.22 34 5.5V18.5C34 18.78 34.22 19 34.5 19C34.78 19 35 18.78 35 18.5ZM20 34.5C20 34.22 19.78 34 19.5 34H5.5C5.22 34 5 33.78 5 33.5V31.5C5 31.22 4.78 31 4.5 31C4.22 31 4 31.22 4 31.5V33.5C4 34.33 4.67 35 5.5 35H19.5C19.78 35 20 34.78 20 34.5ZM5 13H4V14H5V13ZM5 19H4V20H5V19ZM5 25H4V26H5V25Z" fill="#2B3436"/>
<path d="M9 14H7V13H9V14ZM15 13H11V14H15V13ZM13 10H9V11H13V10ZM19 10H15V11H19V10ZM24 10H21V11H24V10ZM11 7H7V8H11V7ZM17 7H13V8H17V7ZM21 7H19V8H21V7ZM7 10H5V11H7V10ZM22 13H17V14H22V13ZM28 13H24V14H28V13ZM11 19H7V20H11V19ZM17 19H13V20H17V19ZM14 16H10V17H14V16ZM20 16H16V17H20V16ZM26 16H22V17H26V16ZM8 16H5V17H8V16ZM23 19H19V20H23V19ZM9 25H7V26H9V25ZM20 25H17V26H20V25ZM15 25H11V26H15V25ZM13 22H9V23H13V22ZM22 22H21V23H22V22ZM19 22H15V23H19V22ZM7 22H5V23H7V22ZM13 28H9V29H13V28ZM11 31H7V32H11V31ZM14 31H13V32H14V31ZM7 28H5V29H7V28ZM17 28H15V29H17V28Z" fill="#FF7C3F"/>
</svg>

<?xml version="1.0" encoding="UTF-8"?><svg id="a" xmlns="http://www.w3.org/2000/svg" width="40" height="40" viewBox="0 0 40 40"><path d="M34.87,23.38c.4-.64.14-1.31-.32-1.65-.47-.33-1.19-.36-1.66.22l-5.27,6.49c-.1,0-.19-.03-.29-.03-1.79,0-3.25,1.46-3.25,3.25,0,1.46-.84,1.97-1.2,2.19-.14.09-.47.29-.36.67.11.39.45.39.96.39h4.4v-.05c1.53-.26,2.7-1.6,2.7-3.21,0-.59-.17-1.14-.45-1.62l.37.23,4.36-6.91ZM27.33,33.93h-2.99c.39-.48.74-1.19.74-2.25,0-1.24,1.01-2.25,2.25-2.25s2.25,1.01,2.25,2.25-1.01,2.25-2.25,2.25ZM28.68,28.72l4.98-6.13c.11-.14.22-.1.3-.04.08.06.15.15.06.3l-4.24,6.71c-.3-.35-.67-.64-1.1-.84Z" style="fill:#009688;"/><path d="M33.5,35h-1c-.28,0-.5-.22-.5-.5s.22-.5.5-.5h1c.28,0,.5-.22.5-.5v-5c0-.28.22-.5.5-.5s.5.22.5.5v5c0,.83-.67,1.5-1.5,1.5ZM35,18.5V5.5c0-.83-.67-1.5-1.5-1.5H5.5c-.83,0-1.5.67-1.5,1.5v2c0,.28.22.5.5.5s.5-.22.5-.5v-2c0-.28.22-.5.5-.5h28c.28,0,.5.22.5.5v13c0,.28.22.5.5.5s.5-.22.5-.5ZM20,34.5c0-.28-.22-.5-.5-.5H5.5c-.28,0-.5-.22-.5-.5v-2c0-.28-.22-.5-.5-.5s-.5.22-.5.5v2c0,.83.67,1.5,1.5,1.5h14c.28,0,.5-.22.5-.5ZM5,13h-1v1h1v-1ZM5,19h-1v1h1v-1ZM5,25h-1v1h1v-1Z" style="fill:#2b3436;"/><path d="M9,14h-2v-1h2v1ZM15,13h-4v1h4v-1ZM13,10h-4v1h4v-1ZM19,10h-4v1h4v-1ZM24,10h-3v1h3v-1ZM11,7h-4v1h4v-1ZM17,7h-4v1h4v-1ZM21,7h-2v1h2v-1ZM7,10h-2v1h2v-1ZM22,13h-5v1h5v-1ZM28,13h-4v1h4v-1ZM11,19h-4v1h4v-1ZM17,19h-4v1h4v-1ZM14,16h-4v1h4v-1ZM20,16h-4v1h4v-1ZM26,16h-4v1h4v-1ZM8,16h-3v1h3v-1ZM23,19h-4v1h4v-1ZM9,25h-2v1h2v-1ZM20,25h-3v1h3v-1ZM15,25h-4v1h4v-1ZM13,22h-4v1h4v-1ZM22,22h-1v1h1v-1ZM19,22h-4v1h4v-1ZM7,22h-2v1h2v-1ZM13,28h-4v1h4v-1ZM11,31h-4v1h4v-1ZM14,31h-1v1h1v-1ZM7,28h-2v1h2v-1ZM17,28h-2v1h2v-1Z" style="fill:#009688;"/></svg>
